src/assets/Logo.svg

<svg width="124" height="50" viewBox="0 0 124 50" fill="none" xmlns="http://www.w3.org/2000/svg">
<path d="M43.3345 31.9004C45.0499 31.9004 46.5903 32.3073 47.9536 33.1162C49.3174 33.9275 50.3653 35.0166 51.0981 36.3799C51.8309 37.7434 52.1968 39.2455 52.1968 40.8877C52.1968 41.3527 52.168 41.8079 52.106 42.251H39.1362C39.333 43.4196 39.7996 44.3137 40.5376 44.9395C41.2762 45.5628 42.2099 45.877 43.3345 45.877C44.1309 45.8769 44.8458 45.7013 45.4819 45.3496C46.1163 44.9981 46.6103 44.513 46.9624 43.8936H51.8257C51.2059 45.7636 50.1313 47.2476 48.6021 48.3486C47.0746 49.4494 45.3176 49.998 43.3345 49.998C41.6721 49.998 40.1602 49.6029 38.8022 48.8115C37.444 48.0245 36.3775 46.9355 35.603 45.5518C34.8284 44.1664 34.4419 42.6316 34.4419 40.9492C34.4419 39.2561 34.827 37.7174 35.5962 36.332C36.3657 34.9465 37.4296 33.864 38.7876 33.0781C40.1457 32.2922 41.6612 31.9004 43.3345 31.9004ZM62.9644 31.9004C65.1759 31.9004 67.0741 32.544 68.6597 33.8311C70.2459 35.1143 71.2501 36.8173 71.6733 38.9355H67.0698C66.6977 38.0898 66.1453 37.4293 65.4126 36.959C64.6798 36.4891 63.8524 36.2559 62.9341 36.2559C61.6834 36.2559 60.6386 36.7002 59.7964 37.5938C58.9544 38.4886 58.5338 39.595 58.5337 40.918C58.5337 42.2414 58.9563 43.3575 59.8042 44.2725C60.6516 45.1876 61.6946 45.6436 62.9341 45.6436C63.8747 45.6436 64.6997 45.3951 65.4126 44.8994C66.1252 44.4033 66.6777 43.6971 67.0698 42.7783H71.7349C71.3318 44.9364 70.3221 46.6794 68.7056 48.0059C67.0884 49.335 65.1651 49.998 62.9341 49.998C61.6634 49.998 60.4656 49.763 59.3394 49.293C58.2126 48.8222 57.2487 48.1847 56.4429 47.3789C55.6374 46.5732 55.0012 45.607 54.5366 44.4824C54.0716 43.3579 53.8394 42.1635 53.8394 40.9043C53.8394 39.6427 54.0716 38.4541 54.5366 37.3389C55.0012 36.2236 55.6373 35.2673 56.4429 34.4727C57.2486 33.6784 58.2162 33.0514 59.3462 32.5918C60.478 32.1306 61.6831 31.9004 62.9644 31.9004ZM89.6597 41.7559C89.6597 42.9752 89.9642 43.9271 90.5728 44.6162C91.1816 45.3015 92.0237 45.6436 93.0972 45.6436C94.1727 45.6435 95.0096 45.297 95.6099 44.6064C96.2071 43.9159 96.5054 42.9643 96.5054 41.7559V32.3809H101.14V42.2822C101.14 44.5973 100.406 46.4603 98.939 47.875C97.4718 49.2915 95.5251 49.998 93.0972 49.998C90.6803 49.998 88.7312 49.2916 87.2495 47.875C85.7676 46.4603 85.0259 44.5973 85.0259 42.2822V32.3809H89.6597V41.7559ZM25.1021 27.3008C27.333 27.3008 29.1832 27.995 30.6558 29.3838C32.127 30.774 32.8638 32.5325 32.8638 34.6602C32.8638 36.0958 32.5024 37.3796 31.7788 38.5117C31.055 39.6415 30.0693 40.5123 28.8208 41.1221L33.731 49.5205H28.354L21.4692 37.4961H24.7759C25.767 37.4961 26.5525 37.2298 27.1304 36.6982C27.7083 36.1662 27.9985 35.4763 27.9985 34.6299C27.9985 33.7832 27.7083 33.0898 27.1304 32.5527C26.5525 32.0164 25.7671 31.7481 24.7759 31.748H18.1772L15.6314 27.3008H25.1021ZM118.49 32.3809H123.216V36.0996H118.568V42.7793C118.568 43.6157 118.796 44.261 119.25 44.7148C119.703 45.1706 120.355 45.3965 121.203 45.3965H123.309V49.5205H120.025C118.146 49.5205 116.66 48.9726 115.57 47.8828C114.48 46.7944 113.936 45.2972 113.936 43.3984V36.0996H110.837V35.1084L117.607 27.9043H118.49V32.3809ZM83.3823 32.3809V36.5039H81.2759C80.4286 36.5039 79.7779 36.7299 79.3237 37.1855C78.8701 37.6397 78.6411 38.2851 78.6411 39.1221V49.5195H74.0103V38.502C74.0103 36.6022 74.553 35.1055 75.6431 34.0176C76.7331 32.9274 78.2188 32.3809 80.0981 32.3809H83.3823ZM109.195 49.5195H104.561V32.3809H109.195V49.5195ZM43.3345 35.8516C42.3138 35.8516 41.4456 36.1364 40.731 36.7051C40.0201 37.2737 39.528 38.0685 39.2603 39.0908H47.5659C47.2449 38.0464 46.721 37.2479 45.9917 36.6904C45.2643 36.1328 44.379 35.8516 43.3345 35.8516ZM109.178 30.4141H104.561V25.7969H109.178V30.4141Z" fill="#FFFFFE"/>
<path d="M18.1777 44.2539C19.7642 44.2539 21.0507 45.54 21.0508 47.127C21.0508 48.7135 19.7643 50 18.1777 50C16.591 49.9999 15.3047 48.7134 15.3047 47.127C15.3047 45.54 16.591 44.254 18.1777 44.2539ZM27.7021 4.60156C29.4172 4.60156 30.9577 5.008 32.3213 5.81738C33.6847 6.62847 34.7329 7.7167 35.4658 9.08008C36.1987 10.4436 36.5654 11.9459 36.5654 13.5879C36.5654 14.0527 36.5357 14.5092 36.4736 14.9521H23.5039C23.7007 16.1205 24.1682 17.0154 24.9062 17.6406C25.6443 18.2638 26.5776 18.5771 27.7021 18.5771C28.4985 18.5771 29.2134 18.4027 29.8496 18.0508C30.4838 17.6988 30.9776 17.2135 31.3291 16.5938H36.1934C35.5738 18.464 34.4992 19.9478 32.9697 21.0488C31.4422 22.1496 29.6853 22.6992 27.7021 22.6992C26.0396 22.6992 24.528 22.3038 23.1699 21.5127C21.8121 20.7249 20.7464 19.6362 19.9717 18.2529C19.1973 16.8673 18.8106 15.333 18.8105 13.6504C18.8105 11.9572 19.1946 10.4177 19.9639 9.03223C20.7329 7.64712 21.7982 6.56466 23.1562 5.7793C24.5143 4.99349 26.029 4.60159 27.7021 4.60156ZM76.1982 4.60156C77.9334 4.6016 79.5104 4.99132 80.9248 5.76953C82.3398 6.54949 83.4493 7.63332 84.2549 9.01855C85.0607 10.4021 85.4658 11.9465 85.4658 13.6504C85.4657 15.3439 85.0607 16.8825 84.2549 18.2676C83.4493 19.6529 82.3397 20.7356 80.9248 21.5215C79.5104 22.3073 77.9334 22.6992 76.1982 22.6992C74.4541 22.6992 72.8736 22.3072 71.459 21.5215C70.0425 20.7356 68.9344 19.6529 68.1338 18.2676C67.3337 16.8825 66.9346 15.3439 66.9346 13.6504C66.9346 11.9353 67.3336 10.3889 68.1338 9.01074C68.9344 7.62917 70.0424 6.54945 71.459 5.76953C72.8736 4.99139 74.4541 4.60156 76.1982 4.60156ZM108.188 4.60156C109.903 4.60156 111.444 5.00796 112.808 5.81738C114.171 6.62843 115.218 7.71684 115.951 9.08008C116.684 10.4436 117.051 11.9459 117.051 13.5879C117.051 14.0527 117.022 14.5092 116.96 14.9521H103.99C104.187 16.1204 104.654 17.0155 105.392 17.6406C106.13 18.2638 107.063 18.5771 108.188 18.5771C108.984 18.5771 109.7 18.4027 110.336 18.0508C110.97 17.6988 111.464 17.2134 111.815 16.5938H116.679C116.059 18.464 114.985 19.9478 113.456 21.0488C111.928 22.1496 110.171 22.6992 108.188 22.6992C106.525 22.6992 105.014 22.3037 103.656 21.5127C102.298 20.7249 101.232 19.6363 100.457 18.2529C99.6824 16.8674 99.296 15.3329 99.2959 13.6504C99.2959 11.9572 99.6809 10.4177 100.45 9.03223C101.219 7.64729 102.284 6.56462 103.642 5.7793C105 4.99346 106.514 4.60162 108.188 4.60156ZM9.46973 0C11.7012 1.97915e-06 13.5515 0.694946 15.0244 2.08398C16.495 3.47394 17.2314 5.23212 17.2314 7.36035C17.2314 8.79557 16.871 10.0789 16.1475 11.2109C15.4238 12.3412 14.437 13.2115 13.1885 13.8213L18.0996 22.2188H12.7217L5.83691 10.1953H9.14355C10.1352 10.1953 10.9204 9.92971 11.498 9.39746C12.0762 8.86634 12.3662 8.17579 12.3662 7.3291C12.3662 6.48237 12.0762 5.79001 11.498 5.25293C10.9204 4.71642 10.1354 4.44729 9.14355 4.44727H2.5459L0 0H9.46973ZM58.585 4.67969C60.3621 4.67969 61.8107 5.30884 62.9316 6.56836C64.0523 7.82965 64.6132 9.46089 64.6133 11.4639V22.2188H59.9795V12.2412C59.9795 11.0927 59.7609 10.2231 59.3213 9.63086C58.8824 9.03629 58.2444 8.73732 57.4082 8.7373C56.3744 8.7373 55.5666 9.10757 54.9834 9.8457C54.3999 10.5857 54.1064 11.6217 54.1064 12.9521V22.2188H49.5986V12.2412C49.5986 11.0928 49.3837 10.2231 48.9551 9.63086C48.5269 9.03635 47.8999 8.73739 47.0742 8.7373C46.0207 8.7373 45.1983 9.10757 44.6094 9.8457C44.021 10.5857 43.7266 11.6216 43.7266 12.9521V22.2188H39.0928V5.08008H42.3164L43.1836 7.2041C43.7926 6.42946 44.549 5.81522 45.4531 5.36133C46.3573 4.90582 47.3051 4.67975 48.2969 4.67969C49.3814 4.67969 50.359 4.92011 51.2266 5.39746C52.0942 5.87867 52.7758 6.55356 53.2715 7.4209C53.8696 6.57512 54.6374 5.90462 55.5723 5.41602C56.5075 4.92396 57.5115 4.67976 58.585 4.67969ZM93.3936 5.08008H98.1201V8.7998H93.4717V15.4785C93.4717 16.3152 93.6994 16.9602 94.1533 17.4141C94.6071 17.8695 95.2578 18.0956 96.1055 18.0957H98.2129V22.2188H94.9277C93.0486 22.2187 91.5627 21.672 90.4727 20.582C89.3828 19.4936 88.8398 17.997 88.8398 16.0977V8.7998H85.7412V7.80762L92.5117 0.603516H93.3936V5.08008ZM76.1982 8.95703C74.8677 8.95703 73.7715 9.3923 72.9131 10.2656C72.0562 11.137 71.629 12.2672 71.6289 13.6504C71.6289 15.0342 72.0562 16.1649 72.9131 17.0361C73.7715 17.9092 74.8677 18.3447 76.1982 18.3447C77.5326 18.3447 78.6265 17.9092 79.4834 17.0361C80.3417 16.1649 80.7695 15.0341 80.7695 13.6504C80.7695 12.2672 80.3417 11.137 79.4834 10.2656C78.6265 9.39232 77.5325 8.95706 76.1982 8.95703ZM27.7021 8.55078C26.6814 8.55082 25.8139 8.83551 25.0996 9.4043C24.3886 9.97273 23.896 10.7673 23.6279 11.79H31.9326C31.6121 10.7458 31.0892 9.94736 30.3604 9.38965C29.6332 8.83166 28.7464 8.55078 27.7021 8.55078ZM108.188 8.55078C107.167 8.55087 106.299 8.83546 105.585 9.4043C104.874 9.9727 104.383 10.7674 104.114 11.79H112.419C112.098 10.7456 111.575 9.9474 110.846 9.38965C110.118 8.83166 109.232 8.55078 108.188 8.55078Z" fill="#52B4DA"/>
<path fill-rule="evenodd" clip-rule="evenodd" d="M4.27274 16L0.771973 22H7.77197L4.27274 16Z" fill="#FFFFFE"/>
</svg>

<svg xmlns="http://www.w3.org/2000/svg" width="124" height="50" fill="none" viewBox="0 0 124 50"><path fill="#fffffe" d="M43.335 31.9q2.573.001 4.619 1.216a8.33 8.33 0 0 1 3.144 3.264q1.1 2.044 1.099 4.508.001.698-.091 1.363h-12.97q.295 1.752 1.402 2.689 1.108.936 2.797.937 1.193 0 2.147-.527a3.77 3.77 0 0 0 1.48-1.456h4.864q-.93 2.804-3.224 4.455-2.292 1.65-5.267 1.649-2.495 0-4.533-1.186a8.5 8.5 0 0 1-3.199-3.26q-1.162-2.079-1.161-4.603 0-2.54 1.154-4.617a8.4 8.4 0 0 1 3.192-3.254q2.036-1.178 4.547-1.178m19.63 0q3.316 0 5.695 1.931 2.379 1.926 3.013 5.104H67.07q-.558-1.27-1.657-1.976-1.1-.704-2.479-.703-1.874-.002-3.138 1.338t-1.262 3.324q-.001 1.983 1.27 3.355t3.13 1.37q1.41 0 2.479-.744t1.657-2.12h4.665q-.605 3.236-3.03 5.227-2.425 1.993-5.77 1.992a9.2 9.2 0 0 1-3.596-.705q-1.688-.705-2.896-1.914a8.8 8.8 0 0 1-1.906-2.897 9.3 9.3 0 0 1-.698-3.578q0-1.892.698-3.565.697-1.674 1.906-2.866t2.903-1.881a9.5 9.5 0 0 1 3.618-.692m26.695 9.856q0 1.828.913 2.86.913 1.028 2.524 1.028 1.613 0 2.513-1.038.895-1.037.895-2.85V32.38h4.635v9.901q0 3.472-2.201 5.593-2.2 2.124-5.842 2.123-3.626.001-5.847-2.123-2.224-2.121-2.224-5.593V32.38h4.634zM25.102 27.3q3.345 0 5.554 2.083 2.207 2.085 2.208 5.276 0 2.154-1.085 3.852-1.086 1.695-2.958 2.61l4.91 8.398h-5.377l-6.885-12.024h3.307q1.487 0 2.354-.798.868-.799.869-2.068 0-1.271-.869-2.077-.867-.805-2.354-.805h-6.599L15.631 27.3zm93.388 5.08h4.726v3.72h-4.648v6.68q0 1.254.682 1.935.68.683 1.953.681h2.106v4.124h-3.284q-2.82-.001-4.455-1.637-1.635-1.635-1.634-4.485V36.1h-3.099v-.992l6.77-7.204h.883zm-35.108 0v4.123h-2.106q-1.27 0-1.952.681-.682.682-.683 1.937V49.52h-4.63V38.502q-.001-2.852 1.632-4.484 1.636-1.636 4.455-1.637zm25.813 17.139h-4.634V32.38h4.634zm-65.86-13.668q-1.532 0-2.604.853c-.71.569-1.203 1.364-1.47 2.386h8.305q-.481-1.566-1.574-2.4-1.092-.838-2.657-.84m65.843-5.438h-4.617v-4.617h4.617z"/><path fill="#52b4da" d="M18.178 44.254a2.873 2.873 0 1 1 0 5.746 2.873 2.873 0 0 1 0-5.746m9.524-39.652q2.573 0 4.62 1.215 2.044 1.218 3.144 3.263t1.1 4.508q0 .698-.092 1.364h-12.97q.295 1.751 1.402 2.689 1.108.935 2.796.936 1.193.001 2.148-.526a3.77 3.77 0 0 0 1.48-1.457h4.863q-.93 2.804-3.223 4.455-2.293 1.65-5.268 1.65-2.494 0-4.532-1.186a8.5 8.5 0 0 1-3.198-3.26q-1.162-2.079-1.162-4.603 0-2.54 1.154-4.618a8.4 8.4 0 0 1 3.192-3.253q2.037-1.178 4.546-1.177m48.496 0q2.603 0 4.727 1.168a8.56 8.56 0 0 1 3.33 3.249q1.21 2.076 1.21 4.631 0 2.54-1.21 4.618a8.6 8.6 0 0 1-3.33 3.253Q78.8 22.7 76.198 22.7q-2.616 0-4.739-1.178a8.56 8.56 0 0 1-3.325-3.253q-1.2-2.078-1.2-4.618 0-2.572 1.2-4.64a8.5 8.5 0 0 1 3.325-3.24q2.123-1.168 4.74-1.168m31.99 0q2.573 0 4.62 1.215a8.33 8.33 0 0 1 3.143 3.263q1.1 2.045 1.1 4.508.001.698-.091 1.364h-12.97q.295 1.751 1.402 2.689 1.108.935 2.796.936 1.194.001 2.148-.526a3.76 3.76 0 0 0 1.479-1.457h4.864q-.93 2.804-3.223 4.455-2.293 1.65-5.268 1.65-2.495 0-4.532-1.186a8.5 8.5 0 0 1-3.199-3.26q-1.162-2.079-1.161-4.603 0-2.54 1.154-4.618a8.4 8.4 0 0 1 3.192-3.253q2.036-1.178 4.546-1.177M9.47 0q3.346 0 5.554 2.084 2.207 2.085 2.207 5.276.001 2.154-1.084 3.85t-2.958 2.611l4.91 8.398h-5.377L5.837 10.195h3.307q1.487 0 2.354-.798.867-.796.868-2.068 0-1.27-.868-2.076-.867-.806-2.354-.806H2.546L0 0zm49.115 4.68q2.666 0 4.347 1.888 1.68 1.892 1.681 4.896v10.755H59.98V12.24q0-1.722-.659-2.61-.659-.893-1.913-.894-1.55 0-2.425 1.109-.876 1.11-.877 3.106v9.267H49.6V12.24q0-1.722-.644-2.61-.642-.893-1.88-.894-1.582 0-2.466 1.109-.882 1.11-.882 3.106v9.267h-4.634V5.08h3.223l.868 2.124a6.6 6.6 0 0 1 2.27-1.843 6.24 6.24 0 0 1 2.843-.681q1.627 0 2.93.717a5.25 5.25 0 0 1 2.045 2.024 6.4 6.4 0 0 1 2.3-2.005 6.4 6.4 0 0 1 3.013-.736m34.809.4h4.726V8.8h-4.648v6.679q0 1.254.681 1.935.681.682 1.953.682h2.107v4.123h-3.285q-2.82-.001-4.455-1.637-1.634-1.634-1.633-4.484V8.8H85.74v-.992L92.51.604h.883zM76.198 8.957q-1.996-.001-3.285 1.309-1.285 1.308-1.284 3.384 0 2.078 1.284 3.386 1.29 1.31 3.285 1.309 2.001 0 3.285-1.309 1.287-1.308 1.286-3.386.001-2.076-1.286-3.384-1.284-1.31-3.285-1.309m-48.496-.406q-1.53 0-2.602.853-1.068.852-1.472 2.386h8.305q-.48-1.565-1.573-2.4-1.091-.838-2.658-.84m80.486 0q-1.532 0-2.603.853-1.067.852-1.471 2.386h8.305q-.48-1.565-1.573-2.4-1.092-.838-2.658-.84"/><path fill="#fffffe" fill-rule="evenodd" d="M4.273 16 .772 22h7z" clip-rule="evenodd"/></svg>
